X:4148
T:Difyrch gwyr Llanfabon
R:Other
O:Wales
M:4/4
K:A
AB |\
c2c2 c2e2|A2A2 A3B|c2d2 e2g2|e6 d2|\
c2c2 c2e2|B2B2 B3c|d2d2 cBAB|A6:|
|:fg|\
a2a2 e2fg|a2a2 e2fg|a2a2 bagf|e6 de|\
f2f2 B2de|f2f2 B2ga|b2a2 g2f2|e6 ed|
c2c2 c2e2|A2A2 A3c|c2c2 d2f2|e6 fg|\
a2a2 g3g|f2f2 e3e|d2f2 edcB|A6||
